!!!OTL: SO NIMM IHN HIN
!!!ARE: Europa, Mitteleuropa, Deutschland
!!!SCT: B0546B
!!!YEM: Copyright 1995, estate of Helmut Schaffrath.
**kern
*ICvox
*Ivox
*M2/4
*k[b-]
*F:
{8c
=1
4f
4a
=2
4cc
8r}
{8cc
=3
8cc
8g
8g
8b-
=4
8b-
8a
8f}
{8cc
=5
8cc
8g
8g
8b-
=6
8b-
8a
8f}
{8cc
=7
8dd
8cc
8b-
8a
=8
4cc
4cc
=9
4a
8r}
{8cc
=10
8dd
8cc
8b-
8a
=11
4cc
4cc
=12
4f
8r}
{8cc
=13
8.cc
16cc
8cc
8a
=14
4dd
8dd}
{8cc
=15
8b-
8a
8b-
8g
=16
4cc
8cc}
{8c
=17
8f
8g
8a
8b-
=18
4cc
4cc
=19
4f
8r}
==
!!!AGN: Studenten -, Burschenschafts - Lied, national
!!!ONB: ESAC (Essen Associative Code) Database: BOEHME
!!!AMT: simple duple
!!!AIN: vox
!!!EED: Helmut Schaffrath
!!!EEV: 1.0
*-
